X:62
T:Oh Nanny. JGi.062
O:Tealby,Lincolnshire
M:C
L:1/8
Q:1/4=110
S:Joshua Gibbons MS,1823,Tealby,Lincs.
N:tune of popular 18th century song by Thomas Carter
R:air
Z:VMP/R.Greig, 2009
K:G
B>c|d<gf<e d2 B>c|d>ed<BA2d>F|{A}G3GG3B|Aedc{c}B2B>c|
d<gf<ed2B>c|d<ed<BA2zF|G2G2G2zB|Aedc{c}B3d|
g>abb a<fzd|e>fggfzd|b (a/g/f/e/)a3b/g/|f2ge~d2z2|
e>fgg fdzB|c>dee dBzG|c3(B/A/)Bg2d|cBAGHd4|
e>fgg fdzB|c>dee dBzG|c3B/A/ G(g2f/)e/{d}cB/A/|(d/c/B/A/)G2zd|
{e}(d/^c/d/e/) d=c Bgzd|{e}(d/^c/d/e/) d=c Bgzd|d/e/f/2g/ a2 b/2c’/2 b/2g/2ze/2c/2|B2~A2G2|]

